img/sprites/intermediate-svg/profile.svg

<svg width="24" height="24" viewBox="0 0 24 24" fill="none" xmlns="http://www.w3.org/2000/svg">
<path d="M12 10.9999C14.209 10.9999 16 9.20595 16 6.99395C15.9766 5.94857 15.5449 4.95388 14.7973 4.22281C14.0497 3.49175 13.0456 3.0824 12 3.0824C10.9544 3.0824 9.95027 3.49175 9.20267 4.22281C8.45507 4.95388 8.02338 5.94857 8 6.99395C8 9.19395 9.791 10.9999 12 10.9999ZM12 4.04495C12.7809 4.04785 13.5289 4.35961 14.0806 4.91214C14.6324 5.46467 14.9432 6.21308 14.945 6.99395C14.9434 7.77499 14.6328 8.52366 14.081 9.0764C13.5292 9.62915 12.781 9.94104 12 9.94395C11.219 9.94104 10.4708 9.62915 9.91901 9.0764C9.3672 8.52366 9.05658 7.77499 9.055 6.99395C9.05658 6.21291 9.3672 5.46424 9.91901 4.91149C10.4708 4.35875 11.219 4.04685 12 4.04395V4.04495Z" stroke="#FFF"/>
<path d="M12 4.04495C12.7809 4.04785 13.5289 4.35961 14.0807 4.91214C14.6324 5.46467 14.9432 6.21308 14.945 6.99395C14.9434 7.77498 14.6328 8.52365 14.081 9.0764C13.5292 9.62915 12.7811 9.94104 12 9.94395C11.219 9.94104 10.4708 9.62915 9.91904 9.0764C9.36723 8.52365 9.0566 7.77498 9.05502 6.99395C9.0566 6.21291 9.36723 5.46424 9.91904 4.91149C10.4708 4.35874 11.219 4.04685 12 4.04395V4.04495ZM20.252 20.1679L20.181 19.6049C19.841 16.9309 17.653 14.8319 14.956 14.8319H9.04402C6.34602 14.8319 4.15802 16.9469 3.81902 19.6049L3.74702 20.1679H20.252V20.1679ZM20.365 20.4999H3.63402C3.57802 20.4999 3.49902 20.4519 3.49902 20.3339C3.49902 17.0889 6.01502 14.4999 9.04302 14.4999H14.955C17.995 14.4999 20.499 17.1029 20.499 20.3339C20.499 20.4519 20.42 20.4999 20.363 20.4999H20.365ZM14.955 15.8319C16.92 15.8319 18.593 17.2339 19.082 19.1679H4.91802C5.40902 17.2439 7.08202 15.8319 9.04402 15.8319H14.956H14.955Z" stroke="#FFF"/>
</svg>

<?xml version="1.0" encoding="utf-8"?><svg width="24" height="24" fill="none" xmlns="http://www.w3.org/2000/svg" viewBox="0 0 24 24"><path d="M12 11c2.209 0 4-1.794 4-4.006a4.001 4.001 0 0 0-8 0C8 9.194 9.791 11 12 11zm0-6.955a2.956 2.956 0 0 1 2.945 2.949A2.956 2.956 0 0 1 12 9.944a2.956 2.956 0 0 1-2.945-2.95A2.956 2.956 0 0 1 12 4.044z" stroke="#1B1711"/><path d="M12 4.045a2.956 2.956 0 0 1 2.945 2.949A2.956 2.956 0 0 1 12 9.944a2.956 2.956 0 0 1-2.945-2.95A2.956 2.956 0 0 1 12 4.044zm8.252 16.123l-.071-.563c-.34-2.674-2.528-4.773-5.225-4.773H9.044c-2.698 0-4.886 2.115-5.225 4.773l-.072.563h16.505zm.113.332H3.634c-.056 0-.135-.048-.135-.166 0-3.245 2.516-5.834 5.544-5.834h5.912c3.04 0 5.544 2.603 5.544 5.834 0 .118-.079.166-.136.166zm-5.41-4.668c1.965 0 3.638 1.402 4.127 3.336H4.918c.491-1.924 2.164-3.336 4.126-3.336h5.912z" stroke="#1B1711"/></svg>
